X: 9134
T: Dainty Davey
R: polka
M: 2/4
K: Dmajor
D|"D"D2DE|F2-FG|A2BA|"G"G4-|G2AG|"D"F2ED|"Em"EF GF|"A7"EF/E/ "G"DB,|"A7"A,4-|A,3D|
"D"D2DE|F2-FG|A2BA|"G"G4-|G2AG|"D"F2ED|"Em"EF GF|"A7"EF/E/ DE|"D"D4-|D3A|
"G"B2GF|"A7"E2FG|"F#m"A2FE|"Bm"D4|"G"G2-GF|"Em"E2-ED|"A7"CD EC|A,B, CA,|
"D"D2DE|F2-FG|A2BA|"G"G4-|G2AG|"D"F2ED|"Em"EF GF|"A7"EF/E/ DE|"D"D4-|D3||

